X:1
T:Title
%%score { ( 1 3 ) | ( 2 4 ) }
L:1/8
Q:1/4=100
M:4/4
K:Eb
V:1 treble nm="Grand Piano"
V:3 treble 
V:2 bass 
V:4 bass 
V:1
 B2 G2 FEGB | c4 e4 | B2 G2 FEDE | [DF]6 z2 | B2 G2 F>E GB | c4 e4 | %6
w: Wharton~Howard * * * * *||||||
 B2 G2 [A,DF]>[G,E] [A,DF][B,DG] | [G,E]6 z2 | [A,DF]2 [G,EG]2 [DA][DG][DA][Dc] | B4 G4 | %10
w: ||||
 =A2 B2 dcBA | [DB]6 z2 | B2 G2 F>E GB | c4 z4 | B2 G2 [A,DF]>[G,E] [A,DF][B,DG] | [G,B,E]6 z2 |] %16
w: ||||||
V:2
 [E,G,E]2 [E,B,E]2 [E,A,D][E,G,][E,B,E][E,G,E] | [A,E]4 [A,CE]4 | %2
 [G,B,E]2 [E,B,E]2 [E,A,B,][E,G,B,][F,A,B,][E,G,B,] | [B,,B,]6 z2 | %4
 [E,G,E]2 [E,B,E]2 [E,A,D]>[E,G,] [E,B,E][E,G,E] | [A,E]4 [A,CE]4 | %6
 [G,B,E]2 [E,B,E]2 B,,>B,, B,,B,, | E,6 z2 | B,,2 B,,2 [B,,F,][B,,G,][B,,F,][B,,A,] | %9
 [E,G,E]4 [E,B,E]4 | [F,E]2 [F,B,D]2 [F,=A,F][F,A,E][F,B,D][F,C] | [B,,F,]6 z2 | %12
 [E,G,E]2 [E,B,E]2 [E,A,D]>[E,G,] [E,B,E][E,G,_D] | C2 z2 z4 | [G,B,E]2 [E,B,E]2 B,,>B,, B,,B,, | %15
 E,6 z2 |] %16
V:3
 x8 | x8 | x8 | x8 | x8 | x8 | x8 | x8 | x8 | x8 | x8 | x8 | x8 | z2 E2 e4 | x8 | x8 |] %16
V:4
 x8 | x8 | x8 | x8 | x8 | x8 | x8 | x8 | x8 | x8 | x8 | x8 | x8 | A,4 [A,CE]4 | x8 | x8 |] %16

